src/icons/console.svg

<svg width="25.6" height="25.6" version="1.1" viewBox="0 0 24 24" xmlns="http://www.w3.org/2000/svg">
<path d="m20 19v-12h-16v12h16m0-16a2 2 0 0 1 2 2v14a2 2 0 0 1 -2 2h-16a2 2 0 0 1 -2 -2v-14c0-1.11.9-2 2-2h16m-7 14v-2h5v2h-5m-3.42-4-4.01-4h2.83l3.3 3.3c.39.39.39 1.03 0 1.42l-3.28 3.28h-2.83z" fill="#ff7043"/>
</svg>

<svg viewBox="0 0 24 24" xmlns="http://www.w3.org/2000/svg"><path d="M20 19V7H4v12h16m0-16a2 2 0 0 1 2 2v14a2 2 0 0 1-2 2H4a2 2 0 0 1-2-2V5a2 2 0 0 1 2-2h16m-7 14v-2h5v2h-5m-3.42-4L5.57 9H8.4l3.3 3.3c.39.39.39 1.03 0 1.42L8.42 17H5.59z" fill="#ff7043"/></svg>
